SharedPackages/Infrastructure/DesignResourcesKitIcons/Sources/DesignResourcesKitIcons/DesignSystemImages.xcassets/Color/24px/Feedback-Color-24.imageset/Feedback-Color-24.svg

<svg width="24" height="24" viewBox="0 0 24 24" fill="none" xmlns="http://www.w3.org/2000/svg">
<path d="M17.1562 3.875H6.84375C4.5138 3.875 2.625 5.7638 2.625 8.09375V13.7863C2.625 15.9064 4.28164 17.625 6.40168 17.625C6.69788 17.625 7.00007 17.8652 6.96309 18.1591C6.88757 18.7593 6.7059 19.4459 6.50954 20.0668C6.26279 20.8471 6.9419 21.6027 7.70205 21.2995C9.0556 20.7597 10.9185 19.83 12.5138 18.364C13.0029 17.9146 13.6281 17.625 14.2924 17.625H17.1562C19.4862 17.625 21.375 15.7362 21.375 13.4062V8.09375C21.375 5.7638 19.4862 3.875 17.1562 3.875Z" fill="#FFD885"/>
<path d="M20.75 13.1562V7.84375C20.75 5.85921 19.14 4.25 17.155 4.25H6.84497C4.85996 4.25 3.25 5.85921 3.25 7.84375V13.5364C3.25003 15.3246 4.64011 16.75 6.40173 16.75C6.70998 16.75 7.00636 16.8711 7.22424 17.0662C7.43895 17.2584 7.62054 17.5676 7.58887 17.9462L7.58508 17.983C7.49999 18.6975 7.28879 19.5368 7.07568 20.2656C7.02576 20.4364 7.0814 20.5796 7.16675 20.6614C7.2436 20.735 7.34272 20.7632 7.46948 20.7037L7.72217 20.5833C9.01101 19.9582 10.6675 18.9947 12.0901 17.6615C12.6709 17.1172 13.4443 16.75 14.2924 16.75H17.1562C19.141 16.75 20.75 15.141 20.75 13.1562ZM22 13.1562C22 15.8314 19.8314 18 17.1562 18H14.2924C13.8119 18 13.3334 18.2095 12.9448 18.5736C11.3472 20.0708 9.50321 21.1196 8.13135 21.7736L8.00012 21.8356C7.37206 22.13 6.72453 21.9687 6.30212 21.5641C5.88823 21.1677 5.69195 20.5442 5.87598 19.9148C6.06524 19.2676 6.23786 18.5781 6.3219 17.9989C3.88211 17.9563 2.00003 15.9618 2 13.5364V7.84375C2 5.16839 4.17008 3 6.84497 3H17.155C19.8299 3 22 5.16839 22 7.84375V13.1562Z" fill="#B66A1F"/>
<path d="M11.6098 9.54985C11.2563 8.92089 10.6657 8.18235 9.86533 8.25496C8.27093 8.3996 7.34947 10.3205 9.56038 12.233C10.1364 12.7313 10.5859 13.1076 10.9369 13.4025C11.4908 13.8678 12.4945 13.8643 13.0487 13.3995C13.4097 13.0968 13.867 12.7182 14.4396 12.233C16.6505 10.3596 15.7291 8.39961 14.1347 8.25496C13.3336 8.18229 12.739 8.92207 12.3824 9.55137C12.2348 9.81195 11.7565 9.81095 11.6098 9.54985Z" fill="#F5A031"/>
<path d="M12.2726 7.69574C12.7124 7.31415 13.3577 6.95612 14.1686 7.00409L14.2476 7.01007L14.3078 7.01605C15.5713 7.15454 16.6667 8.02814 16.9383 9.34283C17.2109 10.6631 16.5862 12.0261 15.309 13.134L15.2476 13.1866C14.96 13.4303 14.6994 13.649 14.4665 13.8437L13.8518 14.3572C13.3023 14.8181 12.6081 14.9984 11.9953 14.9997C11.4017 15.0009 10.7287 14.8344 10.1851 14.4023L10.1328 14.3596C9.87011 14.1389 9.54779 13.8689 9.15677 13.5346L8.74247 13.1783C7.43573 12.0479 6.78362 10.6651 7.06192 9.32648C7.34078 7.98527 8.4766 7.1258 9.75235 7.01007L9.83133 7.00409C10.642 6.95617 11.2866 7.31397 11.726 7.69659C11.8228 7.78086 11.9133 7.86983 11.9983 7.96088C12.084 7.86952 12.1752 7.78027 12.2726 7.69574ZM14.1346 8.25494C13.3335 8.18229 12.7389 8.92205 12.3824 9.55133L12.3676 9.57501C12.2104 9.80396 11.7808 9.80304 11.6244 9.57355L11.6097 9.54974C11.2562 8.9208 10.6656 8.18235 9.86527 8.25494C8.27086 8.39958 7.34943 10.3205 9.56034 12.233C10.1363 12.7312 10.5858 13.1076 10.9368 13.4025C11.4734 13.8533 12.4321 13.8641 12.9954 13.4417L13.0486 13.3995C13.3193 13.1724 13.6443 12.9027 14.0314 12.5773L14.4395 12.233C16.6504 10.3595 15.729 8.39959 14.1346 8.25494Z" fill="#B66A1F"/>
</svg>

<svg fill="none" viewBox="0 0 24 24" xmlns="http://www.w3.org/2000/svg">
  <path fill="#FFDE7A" d="M17.156 3.875H6.844a4.219 4.219 0 0 0-4.219 4.219v5.692c0 2.12 1.657 3.839 3.777 3.839.296 0 .598.24.561.534-.075.6-.257 1.287-.453 1.908-.247.78.432 1.536 1.192 1.232 1.354-.54 3.216-1.469 4.812-2.935.489-.45 1.114-.739 1.778-.739h2.864a4.219 4.219 0 0 0 4.219-4.219V8.094a4.219 4.219 0 0 0-4.219-4.219Z"/>
  <path fill="url(#Feedback-Color-24_svg__a)" d="M20.75 13.156V7.844a3.595 3.595 0 0 0-3.595-3.594H6.845A3.595 3.595 0 0 0 3.25 7.844v5.692c0 1.789 1.39 3.214 3.152 3.214.308 0 .604.121.822.316.215.192.397.502.365.88l-.004.037c-.085.715-.296 1.554-.51 2.283-.05.17.006.314.092.395.077.074.176.102.302.043l.253-.12c1.289-.626 2.946-1.59 4.368-2.922.58-.545 1.354-.912 2.202-.912h2.864a3.594 3.594 0 0 0 3.594-3.594Zm1.25 0A4.844 4.844 0 0 1 17.156 18h-2.864c-.48 0-.959.21-1.347.574-1.598 1.497-3.442 2.546-4.814 3.2l-.13.062a1.498 1.498 0 0 1-1.699-.272 1.636 1.636 0 0 1-.426-1.65c.19-.646.362-1.336.446-1.915C3.882 17.956 2 15.962 2 13.536V7.844A4.845 4.845 0 0 1 6.845 3h10.31A4.845 4.845 0 0 1 22 7.844v5.312Z"/>
  <path fill="#E2A412" d="M11.61 9.55c-.354-.63-.944-1.368-1.745-1.295-1.594.145-2.516 2.065-.305 3.978.576.498 1.026.875 1.377 1.17.554.465 1.558.461 2.112-.004.36-.302.818-.68 1.39-1.166 2.212-1.873 1.29-3.833-.304-3.978-.801-.073-1.396.667-1.753 1.296-.147.26-.625.26-.772-.001Z"/>
  <path fill="url(#Feedback-Color-24_svg__b)" d="M12.273 7.696c.44-.382 1.085-.74 1.896-.692l.079.006.06.006c1.263.139 2.359 1.012 2.63 2.327.273 1.32-.352 2.683-1.629 3.791l-.061.053-.781.657-.615.513c-.55.461-1.244.641-1.857.643-.593 0-1.266-.166-1.81-.598l-.052-.042c-.263-.221-.585-.491-.976-.825l-.415-.357c-1.306-1.13-1.958-2.513-1.68-3.852.279-1.34 1.415-2.2 2.69-2.316l.08-.006c.81-.048 1.455.31 1.894.693.097.084.187.173.272.264.086-.091.177-.18.275-.265Zm1.862.559c-.801-.073-1.396.667-1.753 1.296l-.014.024c-.158.229-.587.228-.744-.001l-.014-.024c-.354-.63-.944-1.368-1.745-1.295-1.594.145-2.516 2.065-.305 3.978.576.498 1.026.875 1.377 1.17.536.45 1.495.461 2.058.039l.054-.043c.27-.227.595-.496.982-.822l.409-.344c2.21-1.873 1.289-3.833-.305-3.978Z"/>
  <defs>
    <linearGradient id="Feedback-Color-24_svg__a" x1="11.967" x2="11.967" y1="4.646" y2="21.105" gradientUnits="userSpaceOnUse">
      <stop offset=".008" stop-color="#E2A412"/>
      <stop offset="1" stop-color="#C18010"/>
    </linearGradient>
    <linearGradient id="Feedback-Color-24_svg__b" x1="12" x2="12" y1="8.25" y2="14.375" gradientUnits="userSpaceOnUse">
      <stop stop-color="#C18010"/>
      <stop offset="1" stop-color="#92540C"/>
    </linearGradient>
  </defs>
</svg>
